X:1
T:Title
%%score ( 1 2 ) ( 3 4 )
L:1/8
Q:1/4=110
M:4/4
K:F
V:1 treble nm="Choir Aahs, Staff"
V:2 treble 
V:3 bass nm="Choir Aahs, Staff-1"
V:4 bass 
V:1
 D2 [^CE]2 [DF]2 [EG]2 | [FA]2 [Fd]2 [Gc]2 [GB]2 | [FA]2 [DA]2 [^CG]2 [DF]2 | E3 E D4 | %4
w: By~William~H.~Monk * * *||||
 D2 [^CE]2 [DF]2 [EG]2 | [FA]2 [Fd]2 [Ec]2 [GB]2 | [FA]2 [FA]2 [EG]2 F2 | G3 G F4 | %8
w: ||||
 [CA]2 [CA]2 D2 [B,E]2 | [DF]2 [EG]2 [FA]2 [FB]2 | [FA]2 [FA]2 [Ec]2 F2 | G2- [EG][DG] [^CA]4 | %12
w: ||||
 D2 [^CE]2 [DF]2 [EG]2 | [FA]2 [Fd]2 [Gc]2 [GB]2 | [FA]2 [FA]2 [EG]2 [DF]2 | E3 E D4 |] %16
w: ||||
V:2
 x8 | x8 | x8 | D2 ^C2 z4 | x8 | x8 | x8 | F2 E2 z4 | x8 | x8 | x8 | D2 z2 z4 | x8 | x8 | x8 | %15
 D2 ^C2 z4 |] %16
V:3
 [D,F,]2 [A,,A,]2 [D,A,]2 [C,C]2 | [F,A,]2 [D,A,]2 [E,C]2 [E,C]2 | [F,C]2 [F,A,]2 [E,A,]2 [D,A,]2 | %3
 [G,,B,]2 [A,,A,]2 [D,F,]4 | [D,F,]2 [A,,A,]2 [D,A,]2 [C,C]2 | [F,C]2 [B,,B,]2 [C,G,]2 [E,C]2 | %6
 z2 C2 z4 | z2 .C2 z4 | [F,A,]2 [F,C]2 [B,,B,]2 [G,,B,]2 | [D,A,]2 [C,C]2 [F,C]2 [D,B,]2 | %10
 [F,C]2 [D,F,]2 [C,G,]2 [D,F,]2 | [B,,B,]2 [B,,D,]2 [A,,E,]4 | [F,A,]2 [E,G,]2 [D,A,]2 [C,C]2 | %13
 [F,A,]2 [D,A,]2 [E,C]2 [E,C]2 | [F,C]2 [F,C]2 [C,C]2 [D,A,]2 | z2 .A,2 z4 |] %16
V:4
 x8 | x8 | x8 | x8 | x8 | x8 | [F,C]2 A,,B,, [C,C]2 [D,A,]2 | [B,,D]2 C,-[C,B,] [F,A,]4 | x8 | x8 | %10
 x8 | x8 | x8 | x8 | x8 | [G,,B,]2 A,,-[A,,G,] [D,F,]4 |] %16

